src/icons/solid/symbols/link-unlink.svg

<svg width="24" height="24" viewBox="0 0 24 24" fill="none" xmlns="http://www.w3.org/2000/svg">
<g clip-path="url(#clip0_402_652)">
<path d="M12 18.0088C12.5013 18.0089 12.912 18.4577 12.9121 19.0049V22.0039C12.9121 22.5511 12.5013 22.9999 12 23C11.4986 23 11.0879 22.5512 11.0879 22.0039V19.0049C11.088 18.4577 11.4987 18.0088 12 18.0088ZM8.59082 18.7861C8.9518 18.3921 9.53355 18.3921 9.89453 18.7861C10.2551 19.1802 10.2553 19.8151 9.89453 20.209L8.52051 21.708C8.15952 22.102 7.58755 22.102 7.22656 21.708C6.86575 21.314 6.86564 20.6899 7.22656 20.2959L8.60059 18.7969L8.59082 18.7861ZM14.0957 18.7969C14.4567 18.4029 15.0384 18.4029 15.3994 18.7969V18.8076L16.7734 20.3076C17.1342 20.7017 17.1344 21.3258 16.7734 21.7197C16.593 21.9057 16.3617 22.0039 16.1211 22.0039C15.8807 22.0038 15.6401 21.9056 15.4697 21.7197L14.0957 20.2197C13.7349 19.8257 13.7348 19.1908 14.0957 18.7969ZM9.25293 6.50488C9.75405 6.50514 10.165 6.95395 10.165 7.50098C10.165 8.04809 9.7541 8.49682 9.25293 8.49707H5.58203V8.51953C4.06826 8.51981 2.8352 9.86523 2.83496 11.5176V12.5137C2.83496 14.1662 4.06811 15.5124 5.58203 15.5127H9.25293C9.75401 15.5129 10.1649 15.9618 10.165 16.5088C10.165 17.0559 9.7541 17.5046 9.25293 17.5049H5.58203C3.05535 17.5046 1 15.261 1 12.5029V11.5068C1.00014 8.74893 3.05544 6.50516 5.58203 6.50488H9.25293ZM18.417 6.47266C20.9438 6.47266 22.9999 8.71653 23 11.4746V12.4707C23 15.2289 20.9439 17.4727 18.417 17.4727H14.7471C14.2459 17.4724 13.835 17.0237 13.835 16.4766C13.8351 15.9296 14.246 15.4807 14.7471 15.4805H18.417C19.9311 15.4805 21.165 14.1342 21.165 12.4814V11.4854C21.1648 9.83284 19.931 8.4873 18.417 8.4873H14.7471C14.246 8.48708 13.8352 8.03816 13.835 7.49121C13.835 6.94409 14.2459 6.49534 14.7471 6.49512H18.417V6.47266ZM12 1C12.5013 1.00007 12.9121 1.44887 12.9121 1.99609V4.99512C12.9121 5.5423 12.5013 5.99115 12 5.99121C11.4987 5.99121 11.0879 5.54234 11.0879 4.99512V1.99609C11.0879 1.44883 11.4986 1 12 1ZM7.22656 2.29102C7.58748 1.89714 8.1693 1.89724 8.53027 2.29102L8.52051 2.30273L9.89453 3.80176C10.2553 4.19574 10.2553 4.8199 9.89453 5.21387C9.53357 5.60787 8.96157 5.60781 8.60059 5.21387L7.22656 3.71387C6.86587 3.31981 6.86568 2.68494 7.22656 2.29102ZM15.4697 2.28027C15.8307 1.88649 16.4125 1.88641 16.7734 2.28027C17.1343 2.6742 17.1341 3.30907 16.7734 3.70312L15.3994 5.20312C15.219 5.38905 14.9885 5.48721 14.748 5.4873V5.47656C14.5074 5.47656 14.2662 5.37842 14.0957 5.19238C13.7348 4.79841 13.7349 4.17431 14.0957 3.78027L15.4697 2.28027Z" fill="#212121"/>
</g>
<defs>
<clipPath id="clip0_402_652">
<rect width="24" height="24" fill="white"/>
</clipPath>
</defs>
</svg>

<svg xmlns="http://www.w3.org/2000/svg" width="24" height="24" fill="none" viewBox="0 0 24 24"><g clip-path="url(#a)"><path fill="currentColor" d="M12 18.009c.501 0 .912.449.912.996v2.999c0 .547-.41.996-.912.996-.501 0-.912-.449-.912-.996v-3c0-.546.41-.995.912-.995m-3.41.777a.867.867 0 0 1 1.305 0 1.07 1.07 0 0 1 0 1.423L8.52 21.708a.856.856 0 0 1-1.294 0 1.056 1.056 0 0 1 0-1.412l1.374-1.5zm5.506.01a.867.867 0 0 1 1.303 0v.012l1.374 1.5a1.056 1.056 0 0 1 0 1.412.886.886 0 0 1-1.304 0l-1.373-1.5a1.07 1.07 0 0 1 0-1.423M9.253 6.506c.501 0 .912.449.912.996s-.41.996-.912.996H5.582v.023c-1.514 0-2.747 1.345-2.747 2.998v.996c0 1.652 1.233 2.998 2.747 2.999h3.67c.502 0 .913.449.913.996s-.41.996-.912.996H5.582C3.055 17.505 1 15.26 1 12.503v-.996c0-2.758 2.055-5.002 4.582-5.002zm9.164-.032c2.527 0 4.583 2.244 4.583 5.002v.996c0 2.758-2.056 5.002-4.583 5.002h-3.67c-.501 0-.912-.45-.912-.996 0-.547.411-.996.912-.997h3.67c1.514 0 2.748-1.346 2.748-2.999v-.996c0-1.652-1.234-2.998-2.748-2.998h-3.67c-.501 0-.912-.449-.912-.996s.41-.996.912-.996h3.67zM12 1c.501 0 .912.449.912.996v3c0 .546-.41.995-.912.995-.501 0-.912-.449-.912-.996V1.996c0-.547.41-.996.912-.996M7.227 2.291a.867.867 0 0 1 1.303 0l-.01.012 1.375 1.499c.36.394.36 1.018 0 1.412a.856.856 0 0 1-1.294 0l-1.374-1.5a1.07 1.07 0 0 1 0-1.423m8.243-.01a.867.867 0 0 1 1.303 0 1.07 1.07 0 0 1 0 1.422l-1.374 1.5a.9.9 0 0 1-.651.284v-.01a.9.9 0 0 1-.652-.285 1.056 1.056 0 0 1 0-1.412z"/></g><defs><clipPath id="a"><path fill="currentColor" d="M0 0h24v24H0z"/></clipPath></defs></svg>
